X:12
T:Springlek efter Omas Per
R:polska K1
H:efter Omas Per Nilsson
A:Transtrand, Dalarna
Z:hn-k1-12
M:3/4
K:Ddor
SA>^c d<f ec|de fa gb|Sa2 (3fdf e^c|de ga/g/ fd|
SA>^c d<f ed|1 S(3^cBc d4:|2 S(3^cBc d3e||
|:Sf2 (3afa gf|ef ge/g/ fe|Sf2 (3afa gf|ef ge/g/ fe|
Sd^c (3def e^c|de ga/g/ fd|SA>^c d<f ed|1 S(3^cBc d3e:|2 S(3^cBc d4||
P:variant
|:SA>^c d<f ec|de fa gb|af df e^c|de ga/g/ e^c|
A^c df ed|1 S(3^cBc d4:|2 S(3^cBc d3e||
|:Sf2 (3afa gf|ef ge/g/ fe|Sf2 (3afa gf|ef ge/g/ fe|
Sd^c (3def e^c|de ga/g/ e^c|A^c df ed|1 S(3^cBc d3e:|2 S(3^cBc d4||

